X: 69
T: Hei duanzi kan jian
%%abc-version 2.0
%%abcx-abcm2ps-target-version 5.9.1 (29 Sep 2008)
%%abc-creator hum2abc beta
%%abcx-conversion-date 2013/10/02 07:44:27
%%abc-edited-by Helmut Schaffrath
%%humdrum-veritas 3921566762
%%humdrum-veritas-data 1336378685
%%continueall 1
%%barnumbers 0
L: 1/8
M: 2/4
K: D
A B f/ d f/ [I:setbarnb 1]| 
B> d B/ A/ F | 
A B f/ d f/ | 
B> dB2 | 
A B f/ d f/ | 
B> d B/ A/ F | 
D/ E/ F B/ d/ A | 
F4 | 
A B f/ d f/ | 
B> d B/ A/ F | 
D/ E/ F B/ d/ A | 
F> AF2 | 
F> d B A/ A/ | 
B F E F | 
B B, E/ F/ D | 
B,4 | 
F> D E B, | 
A> dB2 | 
D/ E/ F E/ F/ D | 
B,4 |]  



